X:1
T:5 Gesänge für Sopran, Alt, Tenor, Bass
T:Willkommen du lieber Mai
T:Friedrich Wilhelm Kücken
T:Mailied
T:Willkommen du lieber Mai
T:CPDL - Creative Commons Attribution Non Commercial 3.0
T:CPDL - Creative Commons Attribution Non Commercial 3.0
T:CPDL - Creative Commons Attribution Non Commercial 3.0
T:CPDL - Creative Commons Attribution Non Commercial 3.0
T:CPDL - Creative Commons Attribution Non Commercial 3.0
T:CPDL - Creative Commons Attribution Non Commercial 3.0
T:CPDL - Creative Commons Attribution Non Commercial 3.0
T:CPDL - Creative Commons Attribution Non Commercial 3.0
T:CPDL - Creative Commons Attribution Non Commercial 3.0
T:CPDL - Creative Commons Attribution Non Commercial 3.0
T:CPDL - Creative Commons Attribution Non Commercial 3.0
T:CPDL - Creative Commons Attribution Non Commercial 3.0
T:CPDL - Creative Commons Attribution Non Commercial 3.0
T:CPDL - Creative Commons Attribution Non Commercial 3.0
T:CPDL - Creative Commons Attribution Non Commercial 3.0
T:CPDL - Creative Commons Attribution Non Commercial 3.0
C:Friedrich Wilhelm Kücken
Z:CPDL - Creative Commons Attribution Non Commercial 3.0
%%score [ 1 2 3 4 ]
L:1/8
Q:1/4=100
M:6/8
K:C
V:1 treble nm="Sopran"
V:2 treble nm="Alt"
V:3 treble-8 nm="Tenor"
V:4 bass nm="Bass"
V:1
"^Lebhaft"!mf! G |!<(! GEc cGe!<)! |!f!!>(! g3 e!>)! z e | d3- ded | c2 z z2 c | !>!c3- cAc | %6
w: Will-|kom- men, will- kom- men, will-|kom- men, du|lieb- * li- cher|Mai, der|Him- * mel so|
 e3 c z c | c3- cAc | e2 z z2 e |!<(! d3 d2 d!<)! |!f! g3 ^c2 c | (e2 d c/d/4c/4)BA | %12
w: hei- ter die|Er- * de so|neu, der|Him- mel so|hei- ter die|Er- * * * * de so|
 Ged c/d/4c/4BA | Ged c/d/4c/4BA | Gg^d ^fec | Bed ABA | G z z!p! ^FGA | B z z d3 | d z z A z z | %19
w: neu, * die Er- * * de so|neu, * die Er- * * de so|neu, * der Him- mel so|hei- ter die Er- de so|neu, so _ _|neu, so|neu, die|
 G z2 | ^F z F | G z z z3 | z3 z z!p!"^dolce" G | (d2 ^c) d z e | c3 G z G | (d2 ^c) d z e | %26
w: Er-|de so|neu.|Die|Flu- * ren so|duf- tig so|blin- * kend von|
 c3- c z e | (e2 f/e/)!<(! d2 e!<)! |!>(! (g2 f)!>)!!p! (A2 _A) | (G2 e) d2 G | c2 z z2!p! G | %31
w: Tau, _ die|Bä- * * che so|mur- * melnd, _|Lüf- * te so|lau, die|
 (d2 ^c) d z e | c3 G z G | (d2 ^c) d z e | c3- c z e |!<(! (e2 f/e/) d2 e!<)! | %36
w: Flu- * ren so|duf- tig so|blin- * kend von|Tau, _ die|Bä- * * che so|
!>(! (g2 f)!>)!!>(! (A2 _A)!>)! | (G2 e) d z G |!f! (g6 | f6 | e3 dc)A | (G2 c) Bed | %42
w: mur- * melnd, _|Lüf- * te so|lau,|_|* * * die|Lüf- * te _ so|
 c z z!f! ^c z z | d z z B z z | c z z (d2 f) |!>(! e3 dAB!>)! | c2 z z2"^dolce" c | %47
w: lau, so|lau, so|lau, die _|Lüf- te _ so|lau, die|
{d} cBc (e2 d) | c2 z z2 c |{d} cBc e2 d | (c3 g3- | g3) (G2 e) | c6- | c2 z z2 z | z6 | z6 | z6 | %57
w: Bä- che so mur- *|melnd, die|Lüf- te so lau, so|lau, _|_ so _|lau.|_||||
 z3 z z!mf! E |!<(! A3- AAB!<)! |!>(! c3 A!>)! z E | A3- AAB | c3- c z2 | z6 | z6 | z6 | z6 | z6 | %67
w: Die|Nach- * ti- gall|flö- tet im|Blü- * ten- ge-|sträuch. _||||||
 z6 | z6 | (A6 | _A6- | A6- | A3- A2)!p!"^dolce" _d | (_d2 c) _e2 _A | _A3- AF_d | %75
w: ||Froh,|_||* * froh|scher- * zen die|Fi- * sche im|
 (_d2 c _e2)!f! _A | !^!f3 _A2 _B | c3 _d2 d | c3 c2 c | F2 z!p!"^espr." (F2 _G) | _A3- AF_d | %81
w: See, _ _ es|sum- men die|Bie- nen im|blü- hen- den|Klee, froh _|scher- * zen die|
 (_d2 c) _e2 _A | _A3- AF_d | (_d2 c _e) z!f! _A | !^!f3 c2 c |!>(! _dc_B!>)! =A2 A | %86
w: Fi- * sche im|schim- * mern- den|See, _ _ es|sum- men die|Bie- * * nen im|
 !>!c3 !>!c2 c |!p!!<(! c3- c3- | c3-!<)! c2 |!f! c |"^cresc." c3 c2 e |!f! g3 f z d | %92
w: Blü- ten- ge-|sträuch. _|_ _|Will-|kom- men, will-|kom- men, du|
 c3{dcBc} e2 d | c2 z2 z c | c3- cAc | e3 c z c | c3- cAc | e2 z2 z e |!<(! d3 d2 d!<)! | %99
w: lieb- li- cher|Mai, der|Him- * mel so|hei- ter die|Er- * de so|neu, der|Him- mel so|
!f! !>!g3 ^c2 c | (e2 d c/d/4c/4)BA | Ged c/d/4c/4BA | Ged c/d/4c/4BA | Gg^d ^fec | Bed ABA | %105
w: hei- ter die|Er- * * * * de so|neu, * die Er- * * de so|neu, * die Er- * * de so|neu, * der Him- mel so|hei- ter die Er- de so|
 G z z!pp! ^FGA | B z z!p! d3 | d z z e z z | G z z ^F z F | G z z z2!p! G | (d2 ^c) d z e | %111
w: neu, so _ _|neu, so|neu, die|Er- de so|neu. Ent-|fer- * ne dich|
 c3 G z G | (d2 ^c) d z e | c3 z z e |!<(! (e2 f/e/) d2 e!<)! |!>(! (g2!>)! f)!p! (A2 _A) | %116
w: Lei- den, ent-|fer- * ne dich|Schmerz, wir|brin- * * gen dem|Mai _ ein _|
 (G2 e) d2 G | c2 z z2!f! G | (d2 ^c) d z e | c3 G z G | (d2 ^c) d z G | e3 z z e | %122
w: fröh- * li- ches|Herz, Ent-|fer- * ne dich|Lei- den, ent-|fer- * ne dich|Schmerz, wir|
 (e2 f/!<(!e/) d2 e!<)! |!>(! (g2 f) (A2 _A)!>)! |[Q:1/4=110]"^Animato" G3 A2"^sempre cresc." A | %125
w: brin- * * gen dem|Mai _ ein _|fröh- li- ches|
 !>!B3 c3 |!<(! !>!^c3 d2 e!<)! | f z z!f! (!>!a3- | a2 e) (f2 d) | (c3- cd/c/B/c/) | e3- e2 d || %131
w: Herz, ein|fröh- li- ches|Herz, ja|_ _ ein _|fröh- * * * * *|li- * ches|
[Q:1/4=120]"^Più moto" c z c ccc | !>!e6 | e2 z!p! d z z | c z z B z B | c z!f! c ccc | (e3 ^fef) | %137
w: Herz. Wir brin- gen dem|Mai-|en ein|fröh- li- ches|Herz, wir brin- gen dem|Mai- * * *|
 ^g z3/2!ff! =g/ !>!g3- | gfe ded | c2 z z3 | z3 z z!mp! G | (G6- | Gfe){e} d^cd | (g6 | A^GA f3 | %145
w: en ein fröh-|* * * li- * ches|Herz,|wir|brin-|* * * gen _ dem|Mai|_ _ _ _|
 G^FG e3- | ef)d dAB | c2 z z2 c |{d} cBc (e2 d) | c2 z2 z c |{d} cBc e2 d | (c3 g3- | g3) (G2 e) | %153
w: |* * ein fröh- li- ches|Herz, wir|brin- gen dem Mai _|ein, ein|fröh- li- ches Herz, dem|Mai, _|_ dem _|
 c6- | c2!f! e eee | c6- | c z z z2 |] %157
w: Mai|_ ein fröh- li- ches|Herz.|_|
V:2
!mf! E |!<(! EEE EGc!<)! |!f!!>(! c3 c!>)! z G | (F2 E F)GF | E2 z z2 E | !>!A3- AFA | G3 E z E | %7
w: Will-|kom- men, will- kom- men, will-|kom- men, du|lieb- * * li- cher|Mai, der|Him- * mel so|hei- ter die|
 A3- AFA | G2 E EF^F |!<(! (G^FG A)GF!<)! |!f! !>!G3 !>!G2 G | G3 ^F2 F | G z z!p! D3 | D z z D3 | %14
w: Er- * de so|neu, so neu, _ der|Him- * * * mel so|hei- ter die|Er- de so|neu, so|neu, so|
 D z z A z z | G z z ^F z F | G z z!p! DE^F | G z z ^FGA | B z z A z z | D z2 | D z C | %21
w: neu, die|Er- de so|neu, so _ _|neu, so _ _|neu, *|||
 B, z!f!"^so" G"^neu." !>!G2 z | z3 z z!p!"^dolce" G | (F2 E) F z G | E3 E z E | (F2 E) F z G | %26
w: |||||
 E3- E z G | (G2 A)!<(! A2 A!<)! |!>(! A3!>)!!p! F2 F | E3 FGF | E2 z z2!p! E | (F2 E) F z G | %32
w: Tau, _ die|Bä- * che so|mur- melnd, die|Lüf- te _ so|lau, *||
 E3 E z E | (F2 E) F z G | E3- E z G |!<(! (G2 A) A2 A!<)! |!>(! A3!>)!!p! F3 | (E2 G) FG!f!F | %38
w: |||||Lüf- * te _ so|
 E z z!f! A3 | A z z G3 | G z z F z z | E z z F z F | E z z!f! A z z | A z z G z z | G z z A3 | %45
w: lau, so|lau, so|lau, die|Lüf- te so|lau, so|lau, so|lau, die|
!>(! G3 F2 F!>)! |"^dolce" (E2 ^D) (E2 D) | E3 F3 | (E2 ^D) (E2 D) | E3 F3 | (E3- E2 ^D | E6- | %52
w: Lüf- te so|lau, _ so _|lau, so|lau, _ so _|lau, so|lau, _ _|_|
 E2) E EEE | E2 z z3 | z6 | z6 | z6 | z6 | z z!mf! D (F3 | E)AE CC z | z z D (F3 | E)AE C z z | %62
w: * die Lüf- te so|lau!|||||Die Nach-|* ti- gall flö- tet|im Blü-|* ten- ge- sträuch,|
 z6 | z6 | z6 | z3 z z C |!<(! F3- FFG!<)! |!>(! A3 F z C!>)! | !>!F3- FFG | A2 z z3 | z6 | %71
w: |||Schal-|mei- * en er-|tö- nen auf|grü- * nen- dem|Hain.||
 z3 z z!pp!"^dolce" F | (F2 =E) F2 F | _G3 G2 G | (F2 =E) F2 F | _G3- G z!f! _A | F=EF FEF | %77
w: Froh|scher- * zen die|Fi- sche im|schim- * mern- den|See, _ es|sum- * * men _ die|
 FEF FEF | F_A=G FEG | F2 z z3 | z!pp! FF F3 | z _EE C3 | z FF F3 | z _EE C z!f! _A | _A3 _G2 G | %85
w: Bie- * * nen _ im|blü- * * hen- * den|Klee,|in dem See|scher- zen sie,|in dem See|scher- zen sie, *||
!>(! F3!>)! F2 =A | !>!A3 !>!G2 G |!p!!<(! ^F3- F3- | F3- F2!<)! |!f! G | G"^cresc."GG GEG | %91
w: ||||Will-|kom- men, will- kom- men, will-|
!f! A3 A2 _A | G3 F2 F | E2 z z2 E | A3- AFA | G3 E z E | A3- AFA | G2 E EF^F | %98
w: kom- men, du|lieb- li- cher|Mai, der|Him- * mel so|hei- ter die|Er- * de so|neu, so neu, _ der|
!<(! (G^FG A)GF!<)! |!f! G3 G2 G |!>(! G3 ^F2!>)! F | G z z!pp! D3 | D z z!p! D3 | D z z A z z | %104
w: Him- * * * mel so|hei- ter die|Er- de so|neu, so|neu, so|neu, die|
 G z z ^F z F | G z z!pp! DE^F | G z z!p! ^FGA | B z z A z z | D z z D z C | B, z z z2!p! G | %110
w: Er- de so|neu, so _ _|neu, so _ _|neu, die|Er- de so||
 (F2 E) F z G | E3 E z E | (F2 E) F z G | E3 z z G |!<(! (G2 A) A2 A!<)! |!>(! A3!>)!!p! F3 | %116
w: ||||brin- * gen dem|Mai ein|
 (E2 G) FGF | E z!f! G G3- | G6- | G6- | G6- | G3 z z G | (G2 A)!<(! A2 A!<)! |!>(! A3 F3!>)! | %124
w: fröh- * li- * ches|Herz, dem Mai|_|||* wir|brin- * gen dem||
 E3 E2"^sempre cresc." E | F3 G3 |!<(! A3 A2 A!<)! | A z z!f! A3- | A z z (A2 _A) | G6 | %130
w: ||||||
 B3- B2 G || G z c cBA | ((!>!^G3 G)AB) | c2 z!p! A z z | G z z F z F | E z!f! c cBA | (^G3 A3) | %137
w: |||||||
 ^G z3/2!ff! B/ !>!B3- | B3 B2 B | c z!pp! E E2 E | E^DF E2 E | F2 F F2 F | FEG F2 F | E2 E E2 E | %144
w: ||Herz, dem Mai, dem|Mai _ ein fröhl'- ches|Herz, dem Mai, dem|Mai _ ein fröhl'- ches|Herz, dem Mai, dem|
 F2 F A2 A | E2 E G2 G | GAG F2 F | (E2 ^D) (E2 D) |!<(! E3 F3!<)! |!p! (E2 ^D) E2 D | %150
w: Mai ein fröhl'- ches|Herz, dem Mai, dem|Mai _ ein fröhl'- ches|Herz, _ dem _|Mai ein|fröh- * li- ches|
!<(! E3 F3!<)! | (E3- E2 ^D | E6- | E2) E EEE | E2!f! G GGG | E6- | E z z z2 |] %157
w: Herz, dem|Mai _ _|_|* ein fröh- li- ches|Herz, ein fröh- li- ches|Herz.|_|
V:3
!mf! G |!<(! GGG Gcc!<)! |!f!!>(! e3 g!>)! z c | B3- BBG | G z c c3- | c2 c c3 | c2 c c3 | %7
w: Will-|kom- men, will- kom- men, will-|kom- men, du|lieb- * li- cher|Mai, der Him-|* mel so|hei- ter die|
 c2 c c3 | c2 c cdc |!<(! (B^AB c)Bc!<)! |!f! (BGA !>!_B)AG | =B3 A2 d | B z z!p! ^FGA | %13
w: Er- de so|neu, so neu, _ der|Him- * * * mel so|hei- * * * ter die|Er- de so|neu, so _ _|
 B z z ^FGA | B z z e z z | d z z (cd)c | (Be)d c/d/4c/4BA | Ged c/d/4c/4BA | %18
w: neu, so _ _|neu, die|Er- de _ so|neu, * die Er- * * de so|neu, _ die Er- * * de so|
 Gg!<(!^d!<)!!>(! ^f!>)!ec | Bed | c{dc}BA | G z z z2!f! G | !>!G2 z z2!p!"^dolce" G | %23
w: neu, * der Him- mel so|hei- ter, die|Er- de so|neu, so|neu. Die|
 (B2 ^A) B z G | G3 G z c | (B2 ^A) B z G | G3- G z c | (^c2 d/c/)!<(! B2 c!<)! | %28
w: Flu- * ren so|duf- tig so|blin- * kend von|Tau, _ die|Bä- * * che so|
!>(! d3!>)!!p! d2 d | edc B2 B | c z!p! G !>!G3- | G3- G2 G | Ged cBA | G3- G3- | G3 G z c | %35
w: mur- melnd, die|Lüf- * * te so|lau, so lau,|_ _ so|duf- * tig blin- kend von|Tau _|_ _ die|
!<(! (^c2 f/e/) B2 c!<)! |!>(! d3!>)!!p! d3 | edc B2!f! B | c z z!f! ^cde | f z z B=cd | %40
w: Bä- * * che so|mur- melnd,|Lüf- * * te so|lau, so _ _|lau, so _ _|
 e z z A z z | c z z d z G | (g6- | g2 f f3 | f2 e) dfd |!>(! c3 Bcd!>)! |"^dolce" (G2 ^F) (G2 F) | %47
w: lau, die|Lüf- te so|lau,|_ _ _|* * die _ _|Lüf- te _ so|lau, _ so _|
 G3 _A3 | (G2 ^F) (G2 F) | G3 _A3 | (G3- G2 ^F | G6- | G2) G GGG | G2 z z2"^dolce" e | e3 e2 e | %55
w: lau, so|lau, _ so _|lau, so|lau, _ _|_|* die Lüf- te so|lau! Die|Nach- ti- gall|
 e3 c2 A | B3- BcB |!p! A6- | A6- | A6- | A6- | A3- A z!f! c | c3- cdc | A2 A F2 F | G3- GAG | %65
w: flö- tet im|Blü- * ten- ge-|sträuch,|_|||* * Schal-|mei- * * en|tö- nen auf dem|grü- * nen- den|
 F2 z z3 | z z _B (!>!d3 | cf)c AA z | z z _B (!>!d3 | c)fc A z z | z6 | z3 z z"^dolce"!pp! _A | %72
w: Hain,|Schal- mei-|* * en tö- nen|auf grü-|* * nem Hain.||Froh|
 (_A2 _d) A2 A | (_A2 _e) A2 A | (_A2 _d) A2 A | (_A2 _e A) z!f! A | _AGA AGA | _AGA AGA | %78
w: scher- * zen die|Fi- * sche im|schim- * mern- den|See, _ _ es|sum- * * men _ die|Bie- * * nen _ im|
 _Ac_B AGB | _A2 z z3 | z!pp! _AA A z"^dolce" A | _g3- gf_e | _d_AA A2 A | _g3- gf!f!_e | %84
w: blü- * * hen- * den|Klee,|in dem See, froh|scher- * zen die|Fi- sche im See, sie|scher- * zen, es|
 _d3 _e2 e |!>(! _d3!>)! c2 c | !>!_e3 !>!e2 e |!p!!<(! _e3- e3- | e3- e2!<)! |!f! =e | %90
w: sum- men die|Bie- nen im|Blü- ten- ge-|sträuch. _|_ _|Will~\-|
 e"^cresc."ce ecc |!f!!<(! ^cde!<)! f z f | e3 B2 G | G z c !>!c3- | c2 c !>!c3 | c2 c !>!c3 | %96
w: kom- men, will- kom- men, will-|kom- * * men, du|lieb- li- cher|Mai, der Him-|* mel so|hei- ter, die|
 c2 c c3 | c2 c cdc |!<(! (BAB c)Bc!<)! |!f! (BGA _B)AG |!>(! =B3 A2!>)! d | B z z!pp! ^FGA | %102
w: Er- de so|neu, so neu, _ der|Him- * * * mel so|hei- * * * ter, die|Er- de so|neu, so _ _|
 B z z!p! ^FGA | B z z e z z | d z z cdc | Bed c/d/4c/4BA | Ged c/d/4c/4BA | Gg^d ^fec | Bed ABA | %109
w: neu, so _ _|neu, die|Er- de _ so|neu, * die Er- * * de so|neu, * die Er- * * de so|neu, * der Him- mel so|hei- ter, die Er- de so|
 G z!p! G !>!G3- | G6- | G3- G z c | (B2 ^A) B z G | G3 z z c |!<(! (^c2 d/c/) B2 c!<)! | %115
w: neu, so neu.|_|* * Ent-|fer- * ne dich|Schmerz, wir|brin- * * gen dem|
!>(! d3!>)!!p! d3 | edc B2 B | c2 z z2!f! G | (f2 e) f z g | e3 e z e | (f2 e) d z f | e3 z z c | %122
w: Mai ein|fröh- * * li- ches|Herz, Ent-|fer- * ne dich|Lei- den, ent-|fer- * ne dich|Schmerz, wir|
 (^c2 d/!<(!c/) B2 c!<)! |!>(! d3 d3!>)! | (e2 c) ^c2"^sempre cresc." c | d3 !>!e3 | %126
w: brin- * * gen dem|Mai ein|fröh- * li- ches|Herz, ein|
!<(! !>!e3 a2 g!<)! | f z z!f! f3- | f z z d3 | e6 | g3- g2 f || e z c ccc | (B3 e3) | %133
w: fröh- li- ches|Herz, ja|_ ein|fröh-|li- * ches|Herz. Wir brin- gen dem|Mai- *|
 e2 z!p! fgf | efe ded | c z!f! c ccc | (B2 e ^d3) | e z3/2!ff! f/ !>!f3- | f3 f2 f | %139
w: en ein _ _|fröh- * * li- * ches|Herz, wir brin- gen dem|Mai- * *|en ein fröh-|* li- ches|
 e z!pp! G G2 G | G^FA G2 G | G2 G G2 G | G2 G G2 G | G2 G G2 G | d2 d d2 d | c2 c c2 c | %146
w: |||||||
 B2 B B2 G | (G2 ^F) (G2 F) |!<(! G3 _A3!<)! |!p! (E2 ^D) E2 D |!<(! G3 _A3!<)! | (G3- G2 ^F | %152
w: ||||||
 G6- | G2) G GGG | G2!f! c ccc | G6- | G z z z2 |] %157
w: |||||
V:4
!mf! C, |!<(! C,C,C, C,E,G,!<)! |!f!!>(! C3 C!>)! z C, | G,3 G,,2 B,, | C,2 z z2 C, | %5
w: Will-|kom- men, will- kom- men, will-|kom- men, du|lieb- li- cher|Mai, der|
 !>!F,3- F,F,F, | C,3 C, z C, | F,3- F,F,F, | C,2 z z2 C, |!<(! !>!D,3 D,2 D,!<)! | %10
w: Him- * mel so|hei- ter die|Er- * de so|neu, der|Him- mel so|
!f! E,3 !>!_E,2 E, | D,3 D,2 D, | G, z z!p! D,E,^F, | G, z z D,E,^F, | G, z z C, z z | %15
w: hei- ter die|Er- de so|neu, so _ _|neu, so _ _|neu, die|
 D, z z D, z D, | G,, z z!p! D,3 | D, z z D,E,^F, | G, z z C, z z | D, z2 | D, z D, | G, z z z3 | %22
w: Er- de so|neu, so|neu, so _ _|neu, die|Er-|de so|neu.|
 z2!f! G,, !>!G,,3- | G,,3- G,,2 G,, | C,E,G, CB,A, | G,3- G,3 | C,E,G, C2 _B, | %27
w: so neu.|_ _ Die|Flu- ren so duf- tig so|blin- *|kend * von Tau die|
 (A,2 A,,)!<(! A,2 G,!<)! |!>(! F,3!>)! F,,2 F,, | G,,3 G,2 G, | C,2 z z2!p! C, | %31
w: Bä- * che so|mur- melnd, die|Lüf- te so|lau, die|
 (B,,2 G,,) B,, z G,, | C,3 C, z C, | (B,,2 G,,) B,, z G,, | C,E,G, C2 _B, | %35
w: Flu- * ren so|duf- tig so|blin- * kend von|Tau, * von Tau, die|
!<(! (A,2 A,,) A,2 G,!<)! |!>(! F,3!>)! F,,3 | G,,3- G,,2!f! G,, | C, z z!f! A,B,^C | %39
w: Bä- * che so|mur- melnd,|Lüf- * te|lau, * * *|
 D z z G,A,B, | C z z F, z z | G, z z G,, z G,, | C, z z!f! A,G,F, | D, z z G,F,D, | C, z z F,3 | %45
w: |||lau, so _ _|lau, so _ _|lau, die|
!>(! G,3 G,,2 G,,!>)! |"^dolce" C,6- | C,6- | C,6- | C,6- | C,6- | C,6- | C,2 C, C,C,C, | %53
w: Lüf- te so|lau,|_||||||
 C,2 z z3 | z6 | z6 | z6 | z6 | z6 | z6 | z6 | z3 z z!f! A, | A,3- A,_B,A, | F,2 F, A,,2 A,, | %64
w: |||||||||||
 C,3- C,F,C, | F,6- | F,6- | F,6- | F,6- | F,3- F, z z | z6 | z3 z z!pp!"^dolce" _D, | %72
w: |Hain,|_||||||
 _D,3 D,2 D, | _A,,3 C,2 C, | _D,3 D,2 D, | (_A,,3 A,,) z!f! _A, | _D,3 D,2 D, | C,3 _B,,2 B,, | %78
w: ||||||
 C,3 C,2 C, | F,2 z z3 | z!pp! _D,D, D,3 | z _A,,A,, A,,3 | z _D,D, D,3 | z _A,,A,, A,, z!f! A,, | %84
w: |Klee,|in dem See|scher- zen sie,|in dem See|scher- zen sie, es|
 _D,C,_B,, =A,,2 A,, |!>(! _B,,3!>)! F,2 F, | !>!^F,3 !>!G,2 G, |!p!!<(! =A,3- (A,3 | %88
w: ||||
 _A,3-)!<)! A,2 |!f! G, | G,"^cresc."E,C CG,C |!f!!>(! A,B,^C!>)! D z F, | G,^F,G, G,,A,,B,, | %93
w: |||||
 C,2 z z2 C, | F,3- F,F,F, | C,3 C, z C, | F,3- F,F,F, | C,2 z z2 C, |!<(! D,3 D,2 D,!<)! | %99
w: * der|Him- * mel so|hei- ter die|Er- * de so|neu, der|Him- mel so|
!f! E,3 _E,2 E, |!>(! D,3 D,2!>)! D, | G,, z z!pp! D,E,^F, | G, z z!p! D,E,^F, | G, z z C, z z | %104
w: hei- ter die|Er- de so|neu, * * *|||
 D, z z D, z D, | G,, z z!pp! D,3 | G,, z z!p! D,E,^F, | G, z z C, z z | D, z z D, z D, | %109
w: |* so|neu, so _ _|neu, die|Er- de so|
 G,, z z z2!p! G,, | (B,,2 G,,) B,, z G,, | C,E,G, CB,A, | G,6 | C,E,G, C2 _B, | %114
w: neu. Ent-|fer- * ne dich|Lei- den, ent- fer- ne dich|Schmerz,|ent- fer- ne dich, wir|
!<(! (A,2 A,,) A,2 G,!<)! |!>(! F,3!>)!!p! F,,3 | G,,3 G,,2 G,, | C,2 z z2!f! G, | %118
w: ||||
 (B,2 G,) B, z G, | [E,E][D,D][C,C] [C,C][B,,B,][A,,A,] | G,A,G, F,E,D, | C,E,G, C2 _B, | %122
w: |Lei- den, ent- fer- ne dich|Schmerz, * ent- fer- ne dich|Lei- den und Schmerz, *|
 (A,2 A,,)!<(! A,2 G,!<)! |!>(! F,3 F,3!>)! | G,3 G,2"^sempre cresc." G, | G,3 _B,3 | %126
w: ||||
!<(! A,3 =B,2 ^C!<)! | D z z!f! D3- | D z z F,3 | G,^F,G, G,F,G, | G,^F,G, [G,,G,][A,,A,][B,,B,] || %131
w: |||fröh- * * li- * ches|Herz, * ein fröh- li- ches|
 [C,C] z C CB,A, | ((E,3 E,)^F,^G,) | A,2 z!p! =F, z z | G, z z G,, z G,, | C, z!f! C CB,A, | %136
w: Herz. * * * *|||||
 (E,3 B,3) | E, z3/2!ff! =G,/ !>!G,3- | G,3 [G,,G,]2 [G,,G,] | [C,G,] z!pp! C, C,2 C, | %140
w: |||Herz, dem Mai ein|
 C,3 C,2 C, | C,2 C, C,2 C, | C,3 C,2 C, | C,2 C, C,2 C, | F,2 F, F,2 F, | G,2 G, G,2 G, | %146
w: fröh- li- ches|Herz, dem Mai ein|fröh- li- ches|Herz, dem Mai, dem|Mai ein fröhl'- ches|Herz, dem Mai, dem|
 G,,2 G,, G,,2 G,, | C,6- | C,6- | C,6- | C,6- | C,6- | C,6- | C,2 C, C,C,C, | C,2!f! C CCC | %155
w: Mai ein fröhl'- ches|Herz,|_|||||* ein fröh- li- ches|Herz, ein fröh- li- ches|
 C,6- | C, z z z2 |] %157
w: Herz.|_|

